X:1
T:The Royal Scots Polka  "CYMRU"
M:C|
L:1/8
Q:80
C:W. Denholm
S:March
K:HP
|: {g}f3/4e/4|
{Gdc}d{e}A{gBd}B{e}A|
{Gdc}d{e}A3/4d/4{gfg}f2|  !
{gef}eg3/4e/4{gcd}c{gef}e3/4c/4|
{g}A3/4{d}c/4{g}e3/4f/4{gf}g{a}f3/4e/4| |
{Gdc}d{e}A{gBd}B{e}A|  !
{Gdc}d{e}A3/4d/4{gfg}f{g}e3/4f/4|
{gf}ge3/4c/4{g}A3/4{d}c/4{g}e3/4g/4|
{fg}fd{gdc}d:|  !
{g}f/2g/2|
{ag}a3/2g/2{fg}f3/2d/2|
{e}A{Gdc}d3/4f/4{ag}ae3/4f/4|  !
{gf}g3/2e/2{gcd}c{gef}e3/4c/4|
{g}A3/4{d}c/4{g}e3/4f/4{gf}g{a}f3/4g/4| |
{ag}a3/2g/2{fg}f3/2d/2|  !
{e}A{Gdc}d3/4f/4{ag}ae3/4f/4|
{gf}ge3/4c/4{g}A3/4{d}c/4{g}e3/4g/4|
{fg}fd{gdc}d{g}f/2g/2| |  !
{ag}a3/2g/2{fg}f3/2d/2|
{e}A{Gdc}d3/4f/4{ag}ae3/4f/4|
{gf}g3/2e/2{gcd}c{gef}e3/4c/4|  !
{g}A/4{d}c3/4{g}e/4f3/4{gf}g{a}f3/4g/4| |
a3/4g/4{a}g3/4f/4{g}f3/4e/4{g}e3/4d/4|
{g}d3/4c/4{g}c3/4{d}B/4{ag}ae3/4f/4|  !
{gf}ge3/4c/4{g}A3/4{d}c/4{g}e3/4g/4|
{fg}fd{gdc}d|] |:
{g}A|  !
{Gdc}d{g}c3/4d/4{gBd}B{e}A|
{Gdc}d{e}A3/4d/4{gfg}f2|
{gef}eg3/4e/4{gcd}c{gef}e3/4c/4|  !
{g}A3/4{d}c/4{g}e3/4f/4{gf}g{a}f3/4e/4| |
{Gdc}d{g}c3/4d/4{gBd}B{e}A|
{Gdc}d{e}A3/4d/4{gfg}f{g}e3/4f/4|  !
{gf}ge3/4c/4{g}A3/4{d}c/4{g}e3/4g/4|
{fg}fd{gdc}d:|
f3/4g/4|  !
a{g}a3/4g/4{fg}f{Gdc}d|
{g}f3/4g/4a3/4g/4{gfg}f{g}e3/4f/4|
{gf}g{f}g3/4e/4{gcd}c{gef}e3/4c/4|  !
{g}A3/4{d}c/4{g}e3/4f/4{gf}g{a}f3/4g/4| |
a{g}a3/4g/4{fg}f{Gdc}d|
{g}f3/4g/4a3/4g/4{gfg}f{g}e3/4f/4|  !
{gf}ge3/4c/4{g}A3/4{d}c/4{g}e3/4g/4|
{fg}fd{gdc}d{g}f3/4g/4| |
a{g}a3/4g/4{fg}f{Gdc}d|  !
{g}f3/4g/4a3/4g/4{gfg}f{g}e3/4f/4|
{gf}g{f}g3/4e/4{gcd}c{gef}e3/4c/4|
{g}A3/4{d}c/4{g}e3/4f/4{gf}g{a}f3/4e/4| |  !
{g}d3/4c/4{g}{g}c3/4B/4{g}B3/4A/4{g}A3/4{d}G/4|
{dc}d{e}A3/4d/4{gfg}f{g}e3/4f/4|
{gf}ge3/4c/4{g}A3/4{d}c/4{g}e3/4g/4|  !
{fg}fd{gdc}d|]

